img/menu-cross.svg

<svg xmlns="http://www.w3.org/2000/svg" viewBox="0 0 23.9 23.9"><path d="m15.1 11.9l8.6-8.6a.8 .8 0 0 0 0 -1.1l-2.1-2-.6-.2-.5.2-8.6 8.6-8.5-8.6a.8 .8 0 0 0 -1.1 0l-2.1 2.1a.7 .7 0 0 0 0 1.1l8.6 8.6-8.6 8.5a.8 .8 0 0 0 0 1.1l2.1 2.1.5.2.5-.2 8.6-8.6 8.6 8.6.5.2.5-.2 2.1-2.1a.8 .8 0 0 0 0 -1.1" fill="#fff"/></svg>

<svg xmlns="http://www.w3.org/2000/svg" viewBox="0 0 23.9 23.9"><title>menu-cross</title><path d="M15.1,11.9l8.6-8.6a0.8,0.8,0,0,0,0-1.1L21.6,0.2,21,0l-0.5.2L11.9,8.8,3.4,0.2A0.8,0.8,0,0,0,2.3.2L0.2,2.3a0.7,0.7,0,0,0,0,1.1l8.6,8.6L0.2,20.5a0.8,0.8,0,0,0,0,1.1l2.1,2.1,0.5,0.2,0.5-.2,8.6-8.6,8.6,8.6L21,23.9l0.5-.2,2.1-2.1a0.8,0.8,0,0,0,0-1.1Z" transform="translate(0)" style="fill:#fff"/></svg>
